static/img/icons/config.svg

<?xml version="1.0" encoding="UTF-8"?>
<svg width="22px" height="22px" viewBox="0 0 22 22" version="1.1" xmlns="http://www.w3.org/2000/svg" xmlns:xlink="http://www.w3.org/1999/xlink">
    <!-- Generator: Sketch 49.1 (51147) - http://www.bohemiancoding.com/sketch -->
    <title>Page 1</title>
    <desc>Created with Sketch.</desc>
    <defs>
        <polygon id="path-1" points="0 0.798702381 21.1630435 0.798702381 21.1630435 20.9920635 0 20.9920635"></polygon>
    </defs>
    <g id="Page-1" stroke="none" stroke-width="1" fill="none" fill-rule="evenodd">
        <g id="Landing-page" transform="translate(-380.000000, -2294.000000)">
            <g id="membrana-platform-components" transform="translate(380.000000, 2014.000000)">
                <g id="for-investors">
                    <g id="text" transform="translate(0.000000, 153.000000)">
                        <g id="Page-1" transform="translate(0.000000, 127.000000)">
                            <path d="M2.66687826,2.90740079 C2.40287826,2.90740079 2.18861739,3.11184524 2.18861739,3.3628373 C2.18861739,3.61474206 2.40287826,3.81918651 2.66687826,3.81918651 C2.93087826,3.81918651 3.14513913,3.61474206 3.14513913,3.3628373 C3.14513913,3.11184524 2.93087826,2.90740079 2.66687826,2.90740079" id="Fill-1" fill="#6E7195"></path>
                            <path d="M4.59905217,2.90740079 C4.33505217,2.90740079 4.1207913,3.11184524 4.1207913,3.3628373 C4.1207913,3.61474206 4.33505217,3.81918651 4.59905217,3.81918651 C4.86305217,3.81918651 5.07731304,3.61474206 5.07731304,3.3628373 C5.07731304,3.11184524 4.86305217,2.90740079 4.59905217,2.90740079" id="Fill-3" fill="#6E7195"></path>
                            <path d="M6.53122609,2.90740079 C6.26722609,2.90740079 6.05296522,3.11184524 6.05296522,3.3628373 C6.05296522,3.61474206 6.26722609,3.81918651 6.53122609,3.81918651 C6.79522609,3.81918651 7.00948696,3.61474206 7.00948696,3.3628373 C7.00948696,3.11184524 6.79522609,2.90740079 6.53122609,2.90740079" id="Fill-5" fill="#6E7195"></path>
                            <g id="Group-9" transform="translate(0.000000, 0.114087)">
                                <mask id="mask-2" fill="white">
                                    <use xlink:href="#path-1"></use>
                                </mask>
                                <g id="Clip-8"></g>
                                <path d="M20.2065217,4.78719444 L0.961304348,4.78719444 L0.961304348,2.62409921 C0.961304348,2.12028968 1.39078261,1.71140079 1.91782609,1.71140079 L19.25,1.71140079 C19.7770435,1.71140079 20.2065217,2.12028968 20.2065217,2.62409921 L20.2065217,4.78719444 Z M20.2065217,7.79909921 L18.5421739,7.79909921 C17.7721739,7.79909921 17.1456522,8.39235317 17.1456522,9.1225119 L17.1456522,11.376877 C17.1456522,11.6351706 16.938087,11.7373929 16.874,11.7629484 C16.8118261,11.7875913 16.5918261,11.855131 16.4024348,11.6744167 L14.7285217,10.0762817 C14.1871304,9.56060714 13.3042609,9.55969444 12.7609565,10.0781071 L9.73356522,12.9759246 C9.46669565,13.2232659 9.3193913,13.5536627 9.31652174,13.906877 C9.31365217,14.2637421 9.46095652,14.6014405 9.72878261,14.856996 L11.3902609,16.4432659 C11.5873043,16.6331071 11.5136522,16.8494167 11.4868696,16.9114802 C11.4533913,16.9872341 11.3481739,17.1633849 11.0908696,17.1633849 L8.72826087,17.1633849 C7.95826087,17.1633849 7.33173913,17.7566389 7.33173913,18.4867976 L7.33173913,20.0794563 L1.91304348,20.0794563 C1.386,20.0794563 0.956521739,19.6705675 0.956521739,19.1667579 L0.956521739,5.69989286 L20.2065217,5.69989286 L20.2065217,7.79909921 Z M20.2065217,14.8679484 C17.3034783,15.0897341 14.9848696,17.3057659 14.7495652,20.0794563 L8.28826087,20.0794563 L8.28826087,18.4867976 C8.28826087,18.2558849 8.48147826,18.0760833 8.72826087,18.0760833 L11.0908696,18.0760833 C11.6590435,18.0760833 12.1487826,17.7648532 12.3687826,17.2637817 C12.5916522,16.7563214 12.4778261,16.1968373 12.0693913,15.7998135 L10.4050435,14.2117183 C10.319913,14.1295754 10.272087,14.0237024 10.2730435,13.9123532 C10.274,13.8064802 10.3189565,13.7051706 10.406,13.6248532 L13.4372174,10.7233849 C13.6036522,10.5636627 13.8858261,10.56275 14.0522609,10.7224722 L15.7261739,12.3196944 C16.1317391,12.7066786 16.7104348,12.8152897 17.2403478,12.605369 C17.7721739,12.3963611 18.1021739,11.924496 18.1021739,11.376877 L18.1021739,9.1225119 C18.1021739,8.89159921 18.2953913,8.71179762 18.5421739,8.71179762 L20.2065217,8.71179762 L20.2065217,14.8679484 Z M20.2065217,19.1667579 C20.2065217,19.6705675 19.7770435,20.0794563 19.25,20.0794563 L15.7309565,20.0794563 C15.9624348,17.8132262 17.8362609,16.0234246 20.2065217,15.8034643 L20.2065217,19.1667579 Z M19.25,0.798702381 L1.91782609,0.798702381 L1.91304348,0.798702381 C0.858,0.798702381 0,1.61739286 0,2.62409921 L0,19.1667579 C0,20.1725516 0.858,20.9921548 1.91304348,20.9921548 L19.25,20.9921548 C20.3050435,20.9921548 21.1630435,20.1725516 21.1630435,19.1667579 L21.1630435,5.69989286 L21.1630435,2.62409921 C21.1630435,1.61739286 20.3050435,0.798702381 19.25,0.798702381 Z" id="Fill-7" fill="#6E7195" mask="url(#mask-2)"></path>
                            </g>
                        </g>
                    </g>
                </g>
            </g>
        </g>
    </g>
</svg>

<svg width="22" height="22" xmlns="http://www.w3.org/2000/svg" xmlns:xlink="http://www.w3.org/1999/xlink"><defs><path id="a" d="M0 .799h21.163v20.193H0z"/></defs><g fill="none" fill-rule="evenodd"><path d="M2.667 2.907a.468.468 0 0 0-.478.456c0 .252.214.456.478.456a.468.468 0 0 0 .478-.456.468.468 0 0 0-.478-.456m1.933 0a.468.468 0 0 0-.48.456c0 .252.215.456.48.456a.468.468 0 0 0 .477-.456.468.468 0 0 0-.478-.456m1.932 0a.468.468 0 0 0-.478.456c0 .252.214.456.478.456a.468.468 0 0 0 .478-.456.468.468 0 0 0-.478-.456" fill="#6E7195"/><g transform="translate(0 .114)"><mask id="b" fill="#fff"><use xlink:href="#a"/></mask><path d="M20.207 4.787H.96V2.624c0-.504.43-.913.957-.913H19.25c.527 0 .957.41.957.913v2.163zm0 3.012h-1.665c-.77 0-1.396.593-1.396 1.324v2.254c0 .258-.208.36-.272.386a.44.44 0 0 1-.472-.089l-1.673-1.598a1.442 1.442 0 0 0-1.968.002l-3.027 2.898a1.274 1.274 0 0 0-.005 1.881l1.661 1.586c.197.19.124.406.097.468a.415.415 0 0 1-.396.252H8.728c-.77 0-1.396.594-1.396 1.324v1.592H1.913c-.527 0-.956-.408-.956-.912V5.7h19.25v2.1zm0 7.069c-2.904.222-5.222 2.438-5.457 5.211H8.288v-1.592c0-.231.193-.41.44-.41h2.363c.568 0 1.058-.312 1.278-.813.223-.508.109-1.067-.3-1.464l-1.664-1.588a.41.41 0 0 1-.132-.3.393.393 0 0 1 .133-.287l3.031-2.902a.455.455 0 0 1 .615 0l1.674 1.597c.406.387.984.495 1.514.285.532-.209.862-.68.862-1.228V9.123c0-.231.193-.411.44-.411h1.665v6.156zm0 4.299c0 .504-.43.912-.957.912h-3.519c.231-2.266 2.105-4.056 4.476-4.276v3.364zM19.25.799H1.913C.858.799 0 1.617 0 2.624v16.543c0 1.006.858 1.825 1.913 1.825H19.25c1.055 0 1.913-.82 1.913-1.825V2.624C21.163 1.617 20.305.8 19.25.8z" fill="#6E7195" mask="url(#b)"/></g></g></svg>
